communes/5851.svg

<?xml version="1.0" encoding="UTF-8" standalone="no"?>
<!-- Created with Inkscape (http://www.inkscape.org/) -->
<svg
   xmlns:dc="http://purl.org/dc/elements/1.1/"
   xmlns:cc="http://creativecommons.org/ns#"
   xmlns:rdf="http://www.w3.org/1999/02/22-rdf-syntax-ns#"
   xmlns:svg="http://www.w3.org/2000/svg"
   xmlns="http://www.w3.org/2000/svg"
   xmlns:xlink="http://www.w3.org/1999/xlink"
   xmlns:sodipodi="http://sodipodi.sourceforge.net/DTD/sodipodi-0.dtd"
   xmlns:inkscape="http://www.inkscape.org/namespaces/inkscape"
   width="500"
   height="627.35999"
   id="svg2"
   sodipodi:version="0.32"
   inkscape:version="0.46"
   version="1.0"
   sodipodi:docname="Wappen Allaman.svg"
   inkscape:output_extension="org.inkscape.output.svg.inkscape">
  <defs
     id="defs4">
    <inkscape:perspective
       sodipodi:type="inkscape:persp3d"
       inkscape:vp_x="0 : 526.18109 : 1"
       inkscape:vp_y="0 : 1000 : 0"
       inkscape:vp_z="744.09448 : 526.18109 : 1"
       inkscape:persp3d-origin="372.04724 : 350.78739 : 1"
       id="perspective10" />
    <inkscape:perspective
       sodipodi:type="inkscape:persp3d"
       inkscape:vp_x="0 : 420.94501 : 1"
       inkscape:vp_y="0 : 1000 : 0"
       inkscape:vp_z="595.27502 : 420.94501 : 1"
       inkscape:persp3d-origin="297.63751 : 280.63 : 1"
       id="perspective2494" />
    <radialGradient
       r="300"
       fy="579.93323"
       fx="858.04236"
       cy="579.93323"
       cx="858.04236"
       gradientTransform="matrix(1.21503,0,0,1.26667,-839.192,-490.489)"
       gradientUnits="userSpaceOnUse"
       id="radialGradient3236"
       xlink:href="#linearGradient2893"
       inkscape:collect="always" />
    <linearGradient
       id="linearGradient2955">
      <stop
         id="stop2965"
         offset="0"
         style="stop-color: white; stop-opacity: 0;" />
      <stop
         id="stop2959"
         offset="1"
         style="stop-color: black; stop-opacity: 0.645833;" />
    </linearGradient>
    <linearGradient
       id="linearGradient2893">
      <stop
         id="stop2895"
         offset="0"
         style="stop-color: rgb(255, 255, 255); stop-opacity: 0.313726;" />
      <stop
         style="stop-color: rgb(255, 255, 255); stop-opacity: 0.25098;"
         offset="0.19"
         id="stop2897" />
      <stop
         id="stop2901"
         offset="0.60000002"
         style="stop-color: rgb(107, 107, 107); stop-opacity: 0.12549;" />
      <stop
         id="stop2899"
         offset="1"
         style="stop-color: rgb(0, 0, 0); stop-opacity: 0.12549;" />
    </linearGradient>
    <inkscape:perspective
       id="perspective28"
       inkscape:persp3d-origin="301.5 : 254.33333 : 1"
       inkscape:vp_z="603 : 381.5 : 1"
       inkscape:vp_y="0 : 1000 : 0"
       inkscape:vp_x="0 : 381.5 : 1"
       sodipodi:type="inkscape:persp3d" />
    <radialGradient
       inkscape:collect="always"
       xlink:href="#linearGradient2893"
       id="radialGradient2544"
       gradientUnits="userSpaceOnUse"
       gradientTransform="matrix(1.21503,0,0,1.26667,-839.192,-490.489)"
       cx="858.04236"
       cy="579.93323"
       fx="858.04236"
       fy="579.93323"
       r="300" />
    <radialGradient
       inkscape:collect="always"
       xlink:href="#linearGradient2893"
       id="radialGradient2547"
       gradientUnits="userSpaceOnUse"
       gradientTransform="matrix(1.21503,0,0,1.26667,-1566.4078,-579.62682)"
       cx="858.04236"
       cy="579.93323"
       fx="858.04236"
       fy="579.93323"
       r="300" />
  </defs>
  <sodipodi:namedview
     id="base"
     pagecolor="#ffffff"
     bordercolor="#666666"
     borderopacity="1.0"
     inkscape:pageopacity="0.0"
     inkscape:pageshadow="2"
     inkscape:zoom="0.35"
     inkscape:cx="8.5714286"
     inkscape:cy="520"
     inkscape:document-units="px"
     inkscape:current-layer="layer1"
     showgrid="false"
     inkscape:window-width="1280"
     inkscape:window-height="750"
     inkscape:window-x="-8"
     inkscape:window-y="-8" />
  <metadata
     id="metadata7">
    <rdf:RDF>
      <cc:Work
         rdf:about="">
        <dc:format>image/svg+xml</dc:format>
        <dc:type
           rdf:resource="http://purl.org/dc/dcmitype/StillImage" />
      </cc:Work>
    </rdf:RDF>
  </metadata>
  <g
     inkscape:label="Ebene 1"
     inkscape:groupmode="layer"
     id="layer1"
     transform="translate(727.21576,-66.50202)">
    <g
       id="g2559"
       transform="matrix(0.7960159,0,0,0.7960159,-138.34042,147.45707)">
      <path
         d="M -725.71179,-87.639901 L -725.71179,371.2291 C -725.71179,537.5401 -591.39779,672.3601 -425.71179,672.3601 C -260.02579,672.3601 -125.71179,537.5401 -125.71179,371.2291 L -125.71179,-87.639901 L -725.71179,-87.639901 z"
         id="path2501"
         style="fill:#5ab532;display:inline" />
      <path
         style="fill:#ffffff"
         d="M -136.81879,452.6481 C -140.50879,453.0891 -144.53779,453.3411 -149.01279,453.3411 C -195.12779,453.3411 -195.12779,427.3721 -241.24379,427.3721 C -287.35979,427.3721 -287.35979,453.3411 -333.47679,453.3411 C -379.59379,453.3411 -379.59379,427.3721 -425.71079,427.3721 C -471.82679,427.3721 -471.82679,453.3411 -517.94179,453.3411 C -564.05779,453.3411 -564.05879,427.3721 -610.17379,427.3721 C -656.29079,427.3721 -656.29079,453.3411 -702.40779,453.3411 C -706.88379,453.3411 -710.91279,453.0891 -714.60379,452.6481 C -704.73779,487.9901 -688.60379,520.6971 -667.48979,549.5021 C -650.85779,541.8131 -640.46079,530.6121 -610.17379,530.6121 C -564.05879,530.6121 -564.05879,556.5811 -517.94179,556.5811 C -471.82479,556.5811 -471.82479,530.6121 -425.71079,530.6121 C -379.59379,530.6121 -379.59379,556.5811 -333.47679,556.5811 C -287.35979,556.5811 -287.35979,530.6121 -241.24379,530.6121 C -210.95879,530.6121 -200.56079,541.8121 -183.93079,549.5011 C -162.81779,520.6971 -146.68479,487.9901 -136.81879,452.6481 z"
         id="path2475" />
      <path
         style="fill:none;stroke:#000000;stroke-width:3"
         d="M -667.49179,549.5021 C -650.85979,541.8131 -640.46279,530.6121 -610.17579,530.6121 C -564.06079,530.6121 -564.06079,556.5811 -517.94379,556.5811 C -471.82679,556.5811 -471.82679,530.6121 -425.71279,530.6121 C -379.59579,530.6121 -379.59579,556.5811 -333.47879,556.5811 C -287.36179,556.5811 -287.36179,530.6121 -241.24579,530.6121 C -210.96079,530.6121 -200.56279,541.8121 -183.93279,549.5011"
         id="path2477" />
      <path
         style="fill:none;stroke:#000000;stroke-width:3"
         d="M -136.81879,452.6481 C -140.50879,453.0891 -144.53779,453.3411 -149.01279,453.3411 C -195.12779,453.3411 -195.12779,427.3721 -241.24379,427.3721 C -287.35979,427.3721 -287.35979,453.3411 -333.47679,453.3411 C -379.59379,453.3411 -379.59379,427.3721 -425.71079,427.3721 C -471.82679,427.3721 -471.82679,453.3411 -517.94179,453.3411 C -564.05779,453.3411 -564.05879,427.3721 -610.17379,427.3721 C -656.29079,427.3721 -656.29079,453.3411 -702.40779,453.3411 C -706.88379,453.3411 -710.91279,453.0891 -714.60379,452.6481"
         id="path2479" />
      <path
         style="fill:#ffffff"
         id="path2606"
         d="M -125.71279,347.2851 L -125.71279,244.0461 C -132.07579,245.7751 -139.57879,246.8621 -149.01379,246.8621 C -195.12879,246.8621 -195.12879,220.8941 -241.24479,220.8941 C -287.36079,220.8941 -287.36079,246.8621 -333.47779,246.8621 C -379.59479,246.8621 -379.59479,220.8941 -425.71179,220.8941 C -471.82779,220.8941 -471.82779,246.8621 -517.94279,246.8621 C -564.05879,246.8621 -564.05979,220.8941 -610.17479,220.8941 C -656.29179,220.8941 -656.29179,246.8621 -702.40879,246.8621 C -711.84279,246.8621 -719.34579,245.7741 -725.70979,244.0461 L -725.70979,347.2851 C -719.34579,349.0141 -711.84279,350.1011 -702.40879,350.1011 C -656.29179,350.1011 -656.29179,324.1321 -610.17479,324.1321 C -564.05979,324.1321 -564.05979,350.1011 -517.94279,350.1011 C -471.82579,350.1011 -471.82579,324.1321 -425.71179,324.1321 C -379.59479,324.1321 -379.59479,350.1011 -333.47779,350.1011 C -287.36079,350.1011 -287.36079,324.1321 -241.24479,324.1321 C -195.12879,324.1321 -195.12879,350.1011 -149.01379,350.1011 C -139.57879,350.1021 -132.07579,349.0141 -125.71279,347.2851 z" />
      <path
         style="fill:none;stroke:#000000;stroke-width:3"
         id="path2608"
         d="M -125.71279,244.0461 C -132.07579,245.7751 -139.57879,246.8621 -149.01379,246.8621 C -195.12879,246.8621 -195.12879,220.8941 -241.24479,220.8941 C -287.36079,220.8941 -287.36079,246.8621 -333.47779,246.8621 C -379.59479,246.8621 -379.59479,220.8941 -425.71179,220.8941 C -471.82779,220.8941 -471.82779,246.8621 -517.94279,246.8621 C -564.05879,246.8621 -564.05979,220.8941 -610.17479,220.8941 C -656.29179,220.8941 -656.29179,246.8621 -702.40879,246.8621 C -711.84279,246.8621 -719.34579,245.7741 -725.70979,244.0461" />
      <path
         style="fill:none;stroke:#000000;stroke-width:3"
         id="path2610"
         d="M -725.71179,347.2851 C -719.34779,349.0141 -711.84479,350.1011 -702.41079,350.1011 C -656.29379,350.1011 -656.29379,324.1321 -610.17679,324.1321 C -564.06179,324.1321 -564.06179,350.1011 -517.94479,350.1011 C -471.82779,350.1011 -471.82779,324.1321 -425.71379,324.1321 C -379.59679,324.1321 -379.59679,350.1011 -333.47979,350.1011 C -287.36279,350.1011 -287.36279,324.1321 -241.24679,324.1321 C -195.13179,324.1321 -195.13179,350.1011 -149.01579,350.1011 C -139.58079,350.1011 -132.07779,349.0131 -125.71579,347.2851" />
      <path
         style="fill:#ffffff"
         id="path2606_2_"
         d="M -125.71279,140.8061 L -125.71279,37.566103 C -132.07579,39.295103 -139.57879,40.382103 -149.01379,40.382103 C -195.12879,40.382103 -195.12879,14.414103 -241.24479,14.414103 C -287.36079,14.414103 -287.36079,40.382103 -333.47779,40.382103 C -379.59479,40.382103 -379.59579,14.415103 -425.71279,14.415103 C -471.82879,14.415103 -471.82879,40.383103 -517.94379,40.383103 C -564.05979,40.383103 -564.06079,14.415103 -610.17579,14.415103 C -656.29279,14.415103 -656.29279,40.383103 -702.40979,40.383103 C -711.84379,40.383103 -719.34679,39.295103 -725.71079,37.567103 L -725.71079,140.8061 C -719.34679,142.5351 -711.84379,143.6221 -702.40979,143.6221 C -656.29279,143.6221 -656.29279,117.6531 -610.17579,117.6531 C -564.06079,117.6531 -564.06079,143.6221 -517.94379,143.6221 C -471.82679,143.6221 -471.82679,117.6531 -425.71279,117.6531 C -379.59579,117.6531 -379.59579,143.6221 -333.47879,143.6221 C -287.36179,143.6221 -287.36179,117.6531 -241.24579,117.6531 C -195.12979,117.6531 -195.12979,143.6221 -149.01479,143.6221 C -139.57879,143.6221 -132.07579,142.5341 -125.71279,140.8061 z" />
      <path
         style="fill:none;stroke:#000000;stroke-width:3"
         id="path2608_2_"
         d="M -125.71279,37.566103 C -132.07579,39.295103 -139.57879,40.382103 -149.01379,40.382103 C -195.12879,40.382103 -195.12879,14.414103 -241.24479,14.414103 C -287.36079,14.414103 -287.36079,40.382103 -333.47779,40.382103 C -379.59479,40.382103 -379.59579,14.415103 -425.71279,14.415103 C -471.82879,14.415103 -471.82879,40.383103 -517.94379,40.383103 C -564.05979,40.383103 -564.06079,14.415103 -610.17579,14.415103 C -656.29279,14.415103 -656.29279,40.383103 -702.40979,40.383103 C -711.84379,40.383103 -719.34679,39.295103 -725.71079,37.567103" />
      <path
         style="fill:none;stroke:#000000;stroke-width:3"
         id="path2610_2_"
         d="M -725.71179,140.8061 C -719.34779,142.5351 -711.84479,143.6221 -702.41079,143.6221 C -656.29379,143.6221 -656.29379,117.6531 -610.17679,117.6531 C -564.06179,117.6531 -564.06179,143.6221 -517.94479,143.6221 C -471.82779,143.6221 -471.82779,117.6531 -425.71379,117.6531 C -379.59679,117.6531 -379.59679,143.6221 -333.47979,143.6221 C -287.36279,143.6221 -287.36279,117.6531 -241.24679,117.6531 C -195.13179,117.6531 -195.13179,143.6221 -149.01579,143.6221 C -139.58079,143.6221 -132.07779,142.5341 -125.71579,140.8061" />
      <path
         style="fill:none;fill-opacity:1;stroke:#000000;stroke-width:3;stroke-miterlimit:4;stroke-dasharray:none;stroke-opacity:1"
         d="M -725.71579,-87.637817 L -725.71579,371.23012 C -725.71579,537.54072 -591.40125,672.36218 -425.71586,672.36218 C -260.03039,672.36218 -125.71579,537.54072 -125.71579,371.23012 L -125.71579,-87.637817 L -725.71579,-87.637817 z"
         id="path3239" />
    </g>
  </g>
</svg>

<?xml version="1.0" encoding="UTF-8"?>
<svg version="1.0" viewBox="0 0 500 627.36" xmlns="http://www.w3.org/2000/svg" xmlns:cc="http://creativecommons.org/ns#" xmlns:dc="http://purl.org/dc/elements/1.1/" xmlns:rdf="http://www.w3.org/1999/02/22-rdf-syntax-ns#" xmlns:xlink="http://www.w3.org/1999/xlink">
<metadata>
<rdf:RDF>
<cc:Work rdf:about="">
<dc:format>image/svg+xml</dc:format>
<dc:type rdf:resource="http://purl.org/dc/dcmitype/StillImage"/>
</cc:Work>
</rdf:RDF>
</metadata>
<g transform="translate(727.22 -66.502)">
<g transform="matrix(.79602 0 0 .79602 -138.34 147.46)">
<path d="m-725.71-87.64v458.87c0 166.31 134.31 301.13 300 301.13s300-134.82 300-301.13v-458.87h-600z" fill="#5ab532"/>
<path d="m-136.82 452.65c-3.69 0.441-7.719 0.693-12.194 0.693-46.115 0-46.115-25.969-92.231-25.969s-46.116 25.969-92.233 25.969-46.117-25.969-92.234-25.969c-46.116 0-46.116 25.969-92.231 25.969-46.116 0-46.117-25.969-92.232-25.969-46.117 0-46.117 25.969-92.234 25.969-4.476 0-8.505-0.252-12.196-0.693 9.866 35.342 26 68.049 47.114 96.854 16.632-7.689 27.029-18.89 57.316-18.89 46.115 0 46.115 25.969 92.232 25.969s46.117-25.969 92.231-25.969c46.117 0 46.117 25.969 92.234 25.969s46.117-25.969 92.233-25.969c30.285 0 40.683 11.2 57.313 18.889 21.113-28.804 37.246-61.511 47.112-96.853z" fill="#fff"/>
<path d="m-667.49 549.5c16.632-7.689 27.029-18.89 57.316-18.89 46.115 0 46.115 25.969 92.232 25.969s46.117-25.969 92.231-25.969c46.117 0 46.117 25.969 92.234 25.969s46.117-25.969 92.233-25.969c30.285 0 40.683 11.2 57.313 18.889" fill="none" stroke="#000" stroke-width="3"/>
<path d="m-136.82 452.65c-3.69 0.441-7.719 0.693-12.194 0.693-46.115 0-46.115-25.969-92.231-25.969s-46.116 25.969-92.233 25.969-46.117-25.969-92.234-25.969c-46.116 0-46.116 25.969-92.231 25.969-46.116 0-46.117-25.969-92.232-25.969-46.117 0-46.117 25.969-92.234 25.969-4.476 0-8.505-0.252-12.196-0.693" fill="none" stroke="#000" stroke-width="3"/>
<path d="m-125.71 347.29v-103.24c-6.363 1.729-13.866 2.816-23.301 2.816-46.115 0-46.115-25.968-92.231-25.968s-46.116 25.968-92.233 25.968-46.117-25.968-92.234-25.968c-46.116 0-46.116 25.968-92.231 25.968-46.116 0-46.117-25.968-92.232-25.968-46.117 0-46.117 25.968-92.234 25.968-9.434 0-16.937-1.088-23.301-2.816v103.24c6.364 1.729 13.867 2.816 23.301 2.816 46.117 0 46.117-25.969 92.234-25.969 46.115 0 46.115 25.969 92.232 25.969s46.117-25.969 92.231-25.969c46.117 0 46.117 25.969 92.234 25.969s46.117-25.969 92.233-25.969 46.116 25.969 92.231 25.969c9.435 1e-3 16.938-1.087 23.301-2.816z" fill="#fff"/>
<path d="m-125.71 244.05c-6.363 1.729-13.866 2.816-23.301 2.816-46.115 0-46.115-25.968-92.231-25.968s-46.116 25.968-92.233 25.968-46.117-25.968-92.234-25.968c-46.116 0-46.116 25.968-92.231 25.968-46.116 0-46.117-25.968-92.232-25.968-46.117 0-46.117 25.968-92.234 25.968-9.434 0-16.937-1.088-23.301-2.816" fill="none" stroke="#000" stroke-width="3"/>
<path d="m-725.71 347.29c6.364 1.729 13.867 2.816 23.301 2.816 46.117 0 46.117-25.969 92.234-25.969 46.115 0 46.115 25.969 92.232 25.969s46.117-25.969 92.231-25.969c46.117 0 46.117 25.969 92.234 25.969s46.117-25.969 92.233-25.969c46.115 0 46.115 25.969 92.231 25.969 9.435 0 16.938-1.088 23.3-2.816" fill="none" stroke="#000" stroke-width="3"/>
<path d="m-125.71 140.81v-103.24c-6.363 1.729-13.866 2.816-23.301 2.816-46.115 0-46.115-25.968-92.231-25.968s-46.116 25.968-92.233 25.968-46.118-25.967-92.235-25.967c-46.116 0-46.116 25.968-92.231 25.968-46.116 0-46.117-25.968-92.232-25.968-46.117 0-46.117 25.968-92.234 25.968-9.434 0-16.937-1.088-23.301-2.816v103.24c6.364 1.729 13.867 2.816 23.301 2.816 46.117 0 46.117-25.969 92.234-25.969 46.115 0 46.115 25.969 92.232 25.969s46.117-25.969 92.231-25.969c46.117 0 46.117 25.969 92.234 25.969s46.117-25.969 92.233-25.969 46.116 25.969 92.231 25.969c9.436 0 16.939-1.088 23.302-2.816z" fill="#fff"/>
<path d="m-125.71 37.566c-6.363 1.729-13.866 2.816-23.301 2.816-46.115 0-46.115-25.968-92.231-25.968s-46.116 25.968-92.233 25.968-46.118-25.967-92.235-25.967c-46.116 0-46.116 25.968-92.231 25.968-46.116 0-46.117-25.968-92.232-25.968-46.117 0-46.117 25.968-92.234 25.968-9.434 0-16.937-1.088-23.301-2.816" fill="none" stroke="#000" stroke-width="3"/>
<path d="m-725.71 140.81c6.364 1.729 13.867 2.816 23.301 2.816 46.117 0 46.117-25.969 92.234-25.969 46.115 0 46.115 25.969 92.232 25.969s46.117-25.969 92.231-25.969c46.117 0 46.117 25.969 92.234 25.969s46.117-25.969 92.233-25.969c46.115 0 46.115 25.969 92.231 25.969 9.435 0 16.938-1.088 23.3-2.816" fill="none" stroke="#000" stroke-width="3"/>
<path d="m-725.72-87.638v458.87c0 166.31 134.31 301.13 300 301.13 165.69 0 300-134.82 300-301.13v-458.87h-600z" fill="none" stroke="#000" stroke-width="3"/>
</g>
</g>
</svg>
